X:691
T: "Mit einem Marienkaeferlein"
N: Z1372
O: Europa, Mitteleuropa, Deutschland, Rhein
R: Kinder - Lied
M: 4/4
L: 1/8
K: F
CCC | F3FG3G | A4z
ABA | A2G3GAG | G2F3
FGA | B4G4 | E2F2z
FFA | c3cc3A | F4z2
FA | B3BBBGG | E4z2
GB | A2F2z2GB | A2F2B3G | E2F2z

